Yosa-Max-Dark/actions/22x22/noisereduction.svg

<?xml version="1.0" encoding="UTF-8"?>
<svg viewBox="0 0 22 22" xmlns="http://www.w3.org/2000/svg">
 <defs id="defs3051">
  <style id="current-color-scheme" type="text/css">.ColorScheme-Text {
        color:#dfdfdf;
      }
      .ColorScheme-Highlight {
        color:#3daee9;
      }</style>
 </defs>
 <path class="ColorScheme-Text" d="m11 3c-0.228034 0-0.425132 0.0834965-0.591797 0.25l-4.3808592 4.3808594h-3.4492188c-0.2281954 0-0.4251319 0.0834965-0.5917969 0.25-0.166665 0.166665-0.25 0.3657161-0.25 0.59375v5.0507816c0 0.228033 0.083335 0.427246 0.25 0.59375 0.1668265 0.166665 0.363763 0.25 0.5917969 0.25h3.4472656l4.3828124 4.380859c0.166665 0.166503 0.363763 0.25 0.591797 0.25 0.228195 0 0.425132-0.083497 0.591797-0.25s0.25-0.363763 0.25-0.591797v-14.316406c0-0.2280339-0.083497-0.4251319-0.25-0.5917969-0.166827-0.1665035-0.363602-0.25-0.591797-0.25zm3.525391 4.8417969c-0.228034 0-0.425294 0.0800444-0.591797 0.2421875-0.166504 0.1623045-0.25 0.3628546-0.25 0.5996094 0 0.1842681 0.052745 0.3395371 0.158203 0.4667968 0.105296 0.1272597 0.233589 0.2380248 0.382812 0.3300782 0.148901 0.0920533 0.298043 0.1930778 0.447266 0.3027343s0.275563 0.2650869 0.380859 0.4667969c0.104973 0.201871 0.158204 0.451715 0.158204 0.75s-0.053069 0.548129-0.158204 0.75c-0.105296 0.201871-0.231636 0.356979-0.380859 0.466797-0.149223 0.109656-0.298365 0.210681-0.447266 0.302734-0.149223 0.091892-0.277516 0.201027-0.382812 0.328125-0.105296 0.127421-0.158203 0.284482-0.158203 0.46875 0 0.236916 0.083496 0.435352 0.25 0.597656 0.166503 0.162305 0.363763 0.244141 0.591797 0.244141 0.131458 0 0.242385-0.022802 0.330078-0.066406 0.614173-0.24596 1.107572-0.655862 1.480469-1.230469 0.372896-0.574445 0.558593-1.194668 0.558593-1.861328s-0.185697-1.2901736-0.558593-1.8691406c-0.373059-0.578967-0.866296-0.9857401-1.480469-1.2226563-0.087693-0.0437657-0.19862-0.0664062-0.330078-0.0664062z" style="fill:currentColor"/>
 <path class="ColorScheme-Text" d="m15.841797 4.7363281c-0.228034 0-0.424971 0.083335-0.591797 0.25-0.166503 0.166665-0.25 0.363763-0.25 0.5917969 0 0.3422123 0.17146 0.6017964 0.513672 0.7773438 0.491112 0.2543578 0.824614 0.4466663 1 0.578125 0.649218 0.4738324 1.155517 1.0682555 1.519531 1.7832031 0.364015 0.7149475 0.544922 1.4762021 0.544922 2.2832031s-0.180907 1.568256-0.544922 2.283203c-0.364014 0.715109-0.870474 1.309532-1.519531 1.783203-0.175386 0.13162-0.508888 0.323767-1 0.578125-0.342212 0.175548-0.513672 0.433179-0.513672 0.775391 0 0.228034 0.083497 0.427246 0.25 0.59375 0.166826 0.166826 0.368553 0.25 0.605469 0.25 0.105296 0 0.214269-0.022802 0.328125-0.066406 1.227862-0.51776 2.215305-1.344499 2.960937-2.480469 0.745632-1.135809 1.119141-2.374595 1.119141-3.716797 0-1.3422022-0.373509-2.580342-1.119141-3.7167969-0.745632-1.1358089-1.733075-1.9628706-2.960937-2.4804687-0.113856-0.0437657-0.227942-0.0664063-0.341797-0.0664063z" style="fill-opacity:.6;fill:currentColor;stroke:naone"/>
</svg>

<svg xmlns="http://www.w3.org/2000/svg" viewBox="0 0 22 22">
  <defs id="defs3051">
    <style type="text/css" id="current-color-scheme">
      .ColorScheme-Text {
        color:#dfdfdf;
      }
      .ColorScheme-Highlight {
        color:#3daee9;
      }
      </style>
  </defs>
 <path 
     style="fill:currentColor;fill-opacity:1;stroke:none" 
     d="M 11 3 C 10.771966 3 10.574868 3.0834965 10.408203 3.25 L 6.0273438 7.6308594 L 2.578125 7.6308594 C 2.3499296 7.6308594 2.1529931 7.7143559 1.9863281 7.8808594 C 1.8196631 8.0475244 1.7363281 8.2465755 1.7363281 8.4746094 L 1.7363281 13.525391 C 1.7363281 13.753424 1.8196631 13.952637 1.9863281 14.119141 C 2.1531546 14.285806 2.3500911 14.369141 2.578125 14.369141 L 6.0253906 14.369141 L 10.408203 18.75 C 10.574868 18.916503 10.771966 19 11 19 C 11.228195 19 11.425132 18.916503 11.591797 18.75 C 11.758462 18.583497 11.841797 18.386237 11.841797 18.158203 L 11.841797 3.8417969 C 11.841797 3.613763 11.7583 3.416665 11.591797 3.25 C 11.42497 3.0834965 11.228195 3 11 3 z M 14.525391 7.8417969 C 14.297357 7.8417969 14.100097 7.9218413 13.933594 8.0839844 C 13.76709 8.2462889 13.683594 8.446839 13.683594 8.6835938 C 13.683594 8.8678619 13.736339 9.0231309 13.841797 9.1503906 C 13.947093 9.2776503 14.075386 9.3884154 14.224609 9.4804688 C 14.37351 9.5725221 14.522652 9.6735466 14.671875 9.7832031 C 14.821098 9.8928596 14.947438 10.04829 15.052734 10.25 C 15.157707 10.451871 15.210938 10.701715 15.210938 11 C 15.210938 11.298285 15.157869 11.548129 15.052734 11.75 C 14.947438 11.951871 14.821098 12.106979 14.671875 12.216797 C 14.522652 12.326453 14.37351 12.427478 14.224609 12.519531 C 14.075386 12.611423 13.947093 12.720558 13.841797 12.847656 C 13.736501 12.975077 13.683594 13.132138 13.683594 13.316406 C 13.683594 13.553322 13.76709 13.751758 13.933594 13.914062 C 14.100097 14.076367 14.297357 14.158203 14.525391 14.158203 C 14.656849 14.158203 14.767776 14.135401 14.855469 14.091797 C 15.469642 13.845837 15.963041 13.435935 16.335938 12.861328 C 16.708834 12.286883 16.894531 11.66666 16.894531 11 C 16.894531 10.33334 16.708834 9.7098264 16.335938 9.1308594 C 15.962879 8.5518924 15.469642 8.1451193 14.855469 7.9082031 C 14.767776 7.8644374 14.656849 7.8417969 14.525391 7.8417969 z "
     class="ColorScheme-Text"
     />
 <path 
     style="fill:currentColor;fill-opacity:0.6;stroke:naone" 
     class="ColorScheme-Text"
     d="M 15.841797 4.7363281 C 15.613763 4.7363281 15.416826 4.8196631 15.25 4.9863281 C 15.083497 5.1529931 15 5.3500911 15 5.578125 C 15 5.9203373 15.17146 6.1799214 15.513672 6.3554688 C 16.004784 6.6098266 16.338286 6.8021351 16.513672 6.9335938 C 17.16289 7.4074262 17.669189 8.0018493 18.033203 8.7167969 C 18.397218 9.4317444 18.578125 10.192999 18.578125 11 C 18.578125 11.807001 18.397218 12.568256 18.033203 13.283203 C 17.669189 13.998312 17.162729 14.592735 16.513672 15.066406 C 16.338286 15.198026 16.004784 15.390173 15.513672 15.644531 C 15.17146 15.820079 15 16.07771 15 16.419922 C 15 16.647956 15.083497 16.847168 15.25 17.013672 C 15.416826 17.180498 15.618553 17.263672 15.855469 17.263672 C 15.960765 17.263672 16.069738 17.24087 16.183594 17.197266 C 17.411456 16.679506 18.398899 15.852767 19.144531 14.716797 C 19.890163 13.580988 20.263672 12.342202 20.263672 11 C 20.263672 9.6577978 19.890163 8.419658 19.144531 7.2832031 C 18.398899 6.1473942 17.411456 5.3203325 16.183594 4.8027344 C 16.069738 4.7589687 15.955652 4.7363281 15.841797 4.7363281 z "
     />
</svg>
